X:24
T:Bonny Dundee
F:http://www.banjolin.co.uk/tunes/abcs/bonnydundee.abc
O:Scotland
R:Jig
M:6/8
L:1/8
K:G
B2c|:ded ded|gfe d2c|B2B BAG|A3 B2c|
   |ded ded |gfe d2c|BcB ABA|1G3 B2c:|2G3 D2D|
   |:G2G G2B |ADD D3|A2G ABc|cBA B2B|
   |BAB cBc|dcd edc|BcB ABA|1G3 G2D:|2G3 B2c|

